X:1
T:We Are Going One by One
T:We Are Going One by One
T:Fred Heumel
T:Fred Heumel, 1909
T:Public Domain Courtesy of the Cyber Hymnal™
T:Public Domain Courtesy of the Cyber Hymnal™
C:Fred Heumel
Z:Public Domain
Z:Courtesy of the Cyber Hymnal™
%%score ( 1 2 ) ( 3 4 )
L:1/8
Q:1/4=83
M:4/4
K:G
V:1 treble 
V:2 treble 
V:3 bass 
V:4 bass 
V:1
 [DG][DA] | [GB]<[GB] [GB]>[GB] [GB]<[GB] [Fc]>[FA] | (G3 A B2) [FA][GB] | %3
w: 1.~We are|go- ing thro’ life’s jour- ney one by|one, * * We are|
w: 2.~We are|go- ing thro’ life’s jour- ney one by|one, * * And our|
w: 3.~We are|go- ing thro’ life’s jour- ney, but there’s|One * * Who will|
 [Ac]<[Ac] [Ac]>[Ac] [Ac]<[Ac] [Bd]>[Ac] | [GB]6 [DG][DA] | %5
w: go- ing t’wards the even- ing’s set- ting|sun; Soon the|
w: la- bors here be- low will soon be|done; When the|
w: ne- ver leave His child- ren sad, for-|lorn; ’Tis the|
 [GB]<[GB] [GB]>[GB] [GB]<[GB] [Fc]>[FA] | (G3 A B2) [GB]G | %7
w: fleet- ing days of earth will all be|past, * * And we’ll|
w: fi- nal end doth come to one and|all, * * Let’s be|
w: lov- ing Sav- ior, He will be our|stay, * * And will|
 [FA]<[FA] [FA]>[FA] [GB]<[GB] [FA]>[FA] | G6 ||"^Refrain" FG | [FA]<[FA] [FA]>[FA] [FA]<[FA] dc | %11
w: stand up- on death’s riv- er bank at|last.|||
w: rea- dy for the heav’n- ly Shep- herd’s|call.|We are|go- ing thro’ life’s jour- ney, Yes, we’re|
w: guide us safe- ly in the nar- row|way.|||
 [GB]<[GB] [GB]>[GB] [GB]<[GB] FG | [FA]<[FA] [FA]>[FA] [FA]<[FA] [Fd]>[Fc] | [GB]6 GA | %14
w: |||
w: go- ing thro’ life’s jour- ney, We are|go- ing thro’ life’s jour- ney one by|one; We are|
w: |||
 [GB]<[GB] [GB]>[GB] [GB]<[GB] Bd | [Gd]<[Gc] [Gc]>[Gc] [Gc]<[Gc] [Gc]>[EA] | %16
w: ||
w: go- ing thro’ life’s jour- ney, Yes, we’re|go- ing thro’ life’s jour- ney; We are|
w: ||
 [DG]<[DG] [DG]>[DG] [GB]<[GB] [FA]>[DA] | [DG]6 |] %18
w: ||
w: go- ing thro’ life’s jour- ney one by|one.|
w: ||
V:2
 x2 | x8 | G6 x2 | x8 | x8 | x8 | G6 G x | x8 | G6 || x2 | x8 | x8 | x8 | x8 | x8 | x8 | x8 | x6 |] %18
V:3
 [G,B,][G,C] | [G,D]<[G,D] [G,D]>[G,D] [G,D]<[G,D] [D,D]>[D,C] | (B,3 C D2) [D,D][D,D] | %3
 [D,D]<[D,D] [D,D]>[D,D] [D,D]<[D,D] [D,D]>[D,D] | [G,D]6 [G,B,][G,C] | %5
 [G,D]<[G,D] [G,D]>[G,D] [G,D]<[G,D] [D,D]>[D,C] | (B,3 C D2) [G,D][G,B,] | %7
 [D,C]<[D,C] [D,D]>[D,D] [D,D]<[D,D] [D,C]>[D,C] | [G,B,]6 || A,B, | %10
 [D,C]<[D,C] [D,C]>[D,C] [D,C]<[D,C] B,E | [G,D]<[G,D] [G,D]>[G,D] [G,D]<[G,D] A,B, | %12
 [D,C]<[D,C] [D,C]>[D,C] [D,C]<[D,C] [D,A,]>[D,D] | [G,D]6 B,C | %14
 [G,D]<[G,D] [G,D]>[G,D] [G,D]<[G,D] D=F | [C,=F]<[C,E] [C,E]>[C,E] [C,E]<[C,E] [C,E]>[C,C] | %16
 [D,B,]<[D,B,] [D,B,]>[D,B,] [D,D]<[D,D] [D,C]>[D,C] | [G,B,]6 |] %18
V:4
 x2 | x8 | G,6 x2 | x8 | x8 | x8 | G,6 x2 | x8 | x6 || x2 | x8 | x8 | x8 | x8 | x8 | x8 | x8 | %17
 x6 |] %18

